src/images/vector.svg

<svg width="42" height="47" fill="none" xmlns="http://www.w3.org/2000/svg"><path d="M36.4 11.9l1.6-1.6 1.9 1.9 1.2-1.3-5.1-5-1.2 1.3 1.9 1.9-1.6 1.6C31.7 7.3 27 5.2 21.8 5V2.8h4.1V0h-10v2.8H20V5c-5 .2-9.6 2.3-13.2 5.5L5.2 8.8 7 7.1 5.7 5.9l-5 5L2 12.1l2-2 1.6 1.6C2.1 15.4 0 20.4 0 25.9c0 11.6 9.4 20.9 20.9 20.9 11.6 0 20.9-9.4 20.9-20.9.1-5.4-2-10.3-5.4-14zM20.9 44.1c-10 0-18.2-8.2-18.2-18.2S10.9 7.7 20.9 7.7s18.2 8.2 18.2 18.2c0 10.1-8.1 18.2-18.2 18.2zm0-35c-9.3 0-16.8 7.5-16.8 16.8s7.5 16.8 16.8 16.8 16.8-7.5 16.8-16.8c.1-9.3-7.5-16.8-16.8-16.8zm0 31.9c-8.3 0-15.1-6.8-15.1-15.1s6.8-15.1 15.1-15.1S36 17.6 36 25.9 29.3 41 20.9 41zm1.4-17.6l-1.4 1.4-3.6-3.6-1.3 1.2 4.2 4.2c.2.2.4.3.6.3.2 0 .4-.1.6-.3l7.4-7.2-1.2-1.3-5.3 5.3zM8.1 26.9h2.6v-1.8H8.1v1.8zm23.2-1.8v1.8h2.4v-1.8h-2.4zm-9.6-11.9H20v2.3h1.8v-2.3h-.1zM20 38.8h1.8v-2.2H20v2.2z" fill="#fff"/></svg>

<svg width="42" height="47" viewBox="0 0 42 47" fill="none" xmlns="http://www.w3.org/2000/svg">
<path d="M36.4 11.9L38 10.3L39.9 12.2L41.1 10.9L36 5.9L34.8 7.2L36.7 9.1L35.1 10.7C31.7 7.3 27 5.2 21.8 5V2.8H25.9V0H15.9V2.8H20V5C15 5.2 10.4 7.3 6.8 10.5L5.2 8.8L7 7.1L5.7 5.9L0.7 10.9L2 12.1L4 10.1L5.6 11.7C2.1 15.4 0 20.4 0 25.9C0 37.5 9.4 46.8 20.9 46.8C32.5 46.8 41.8 37.4 41.8 25.9C41.9 20.5 39.8 15.6 36.4 11.9ZM20.9 44.1C10.9 44.1 2.7 35.9 2.7 25.9C2.7 15.9 10.9 7.7 20.9 7.7C30.9 7.7 39.1 15.9 39.1 25.9C39.1 36 31 44.1 20.9 44.1ZM20.9 9.1C11.6 9.1 4.1 16.6 4.1 25.9C4.1 35.2 11.6 42.7 20.9 42.7C30.2 42.7 37.7 35.2 37.7 25.9C37.8 16.6 30.2 9.1 20.9 9.1ZM20.9 41C12.6 41 5.8 34.2 5.8 25.9C5.8 17.6 12.6 10.8 20.9 10.8C29.2 10.8 36 17.6 36 25.9C36 34.2 29.3 41 20.9 41ZM22.3 23.4L20.9 24.8L17.3 21.2L16 22.4L20.2 26.6C20.4 26.8 20.6 26.9 20.8 26.9C21 26.9 21.2 26.8 21.4 26.6L28.8 19.4L27.6 18.1L22.3 23.4ZM8.1 26.9H10.7V25.1H8.1V26.9ZM31.3 25.1V26.9H33.7V25.1H31.3ZM21.7 13.2H20V15.5H21.8V13.2H21.7ZM20 38.8H21.8V36.6H20V38.8Z" fill="white"/>
</svg>
